static/favicon.svg

<svg width="268" height="268" viewBox="0 0 268 268" fill="none" xmlns="http://www.w3.org/2000/svg">
<path d="M134 262.004V146.899" stroke="black" stroke-width="12" stroke-linecap="round" stroke-linejoin="round"/>
<path d="M174.657 8.90118C177.852 7.12016 181.45 6.18504 185.11 6.18504C188.77 6.18504 192.369 7.12016 195.563 8.90118L249.431 39.0842C253.246 41.2354 256.42 44.3581 258.628 48.1331C260.836 51.9081 262 56.2001 262 60.5705C262 64.9408 260.836 69.2328 258.628 73.0078C256.42 76.7828 253.246 79.9055 249.431 82.0567L93.2144 169.792C90.0106 171.615 86.3858 172.573 82.6974 172.573C79.009 172.573 75.3842 171.615 72.1804 169.792L18.5691 139.609C14.7541 137.458 11.5803 134.335 9.37195 130.56C7.16362 126.785 6 122.493 6 118.123C6 113.753 7.16362 109.461 9.37195 105.686C11.5803 101.911 14.7541 98.7879 18.5691 96.6367L174.657 8.90118Z" stroke="black" stroke-width="12" stroke-linecap="round" stroke-linejoin="round"/>
<path d="M236.605 146.899V196.394C236.61 201.222 235.285 205.958 232.774 210.085C230.264 214.212 226.664 217.573 222.369 219.799L145.415 259.19C141.889 261.018 137.974 261.972 134 261.972C130.026 261.972 126.111 261.018 122.585 259.19L45.6313 219.799C41.3357 217.573 37.7362 214.212 35.2255 210.085C32.7149 205.958 31.3898 201.222 31.3948 196.394V146.899" stroke="black" stroke-width="12" stroke-linecap="round" stroke-linejoin="round"/>
<path d="M249.431 139.609C253.246 137.458 256.42 134.335 258.628 130.56C260.836 126.785 262 122.493 262 118.123C262 113.753 260.836 109.461 258.628 105.686C256.42 101.911 253.246 98.7879 249.431 96.6367L93.3427 8.7733C90.1604 6.95605 86.557 6 82.8898 6C79.2226 6 75.6192 6.95605 72.4369 8.7733L18.5691 39.0843C14.7541 41.2355 11.5803 44.3581 9.37195 48.1331C7.16362 51.9082 6 56.2002 6 60.5705C6 64.9408 7.16362 69.2328 9.37195 73.0079C11.5803 76.7829 14.7541 79.9055 18.5691 82.0567L174.786 169.792C177.966 171.614 181.57 172.573 185.238 172.573C188.907 172.573 192.511 171.614 195.691 169.792L249.431 139.609Z" stroke="black" stroke-width="12" stroke-linecap="round" stroke-linejoin="round"/>
<path d="M170.782 72.5659C170.601 72.3686 170.409 72.1715 170.216 71.9859C170.024 71.8001 169.844 71.5913 169.651 71.4057C169.459 71.2201 169.278 71.0114 169.086 70.8255C168.894 70.6399 168.713 70.4312 168.521 70.2456C168.328 70.06 168.148 69.851 167.956 69.6654C167.763 69.4798 167.582 69.271 167.39 69.0854C167.198 68.8998 167.017 68.6908 166.825 68.5052C172.432 74.1608 175.645 81.8547 175.767 89.9225C175.767 109.147 156.752 124.786 133.373 124.786C120.282 124.786 108.57 119.879 100.781 112.187L101.346 112.767L101.911 113.347L102.476 113.927L103.042 114.507L103.607 115.087L104.172 115.667L104.737 116.247C112.515 124.264 124.487 129.427 137.895 129.427C161.274 129.427 180.289 113.788 180.289 94.6212C180.289 86.4303 176.853 78.6686 170.782 72.5659Z" fill="black"/>
<path d="M172.941 89.9225C172.941 107.569 155.226 121.874 133.373 121.874C111.52 121.874 93.8053 107.569 93.8053 89.9225C93.8053 78.9818 100.588 69.3174 111.012 63.586C121.435 57.8546 127.924 51.984 133.373 51.984C138.822 51.984 143.48 56.7756 155.735 63.586C166.158 69.3174 172.941 78.9818 172.941 89.9225Z" fill="#FBF0DF"/>
<path d="M172.941 89.9225C172.935 87.6556 172.631 85.3999 172.037 83.2166C168.95 121.851 123.029 123.707 104.975 112.152C113.091 118.608 123.106 122.036 133.373 121.874C155.192 121.874 172.941 107.546 172.941 89.9225Z" fill="#F6DECE"/>
<path d="M118.145 61.4629C123.199 58.3535 129.914 52.5177 136.516 52.5061C135.5 52.1692 134.44 51.9931 133.373 51.984C130.637 51.984 127.721 53.4343 124.046 55.6155C122.769 56.3812 121.446 57.2281 120.044 58.1099C117.41 59.7806 114.392 61.6717 111 63.5629C100.238 69.5378 93.8053 79.3879 93.8053 89.9225C93.8053 90.3866 93.8053 90.8507 93.8053 91.3031C100.656 66.4634 113.103 64.5721 118.145 61.4629Z" fill="#FFFEFC"/>
<path fill-rule="evenodd" clip-rule="evenodd" d="M130.117 54.9193C130.133 57.6588 129.573 60.3695 128.474 62.8664C127.376 65.3633 125.765 67.5874 123.752 69.3871C123.436 69.6771 123.685 70.2339 124.092 70.0715C127.901 68.5516 133.045 64.0036 130.875 54.8265C130.784 54.3044 130.117 54.4437 130.117 54.9193ZM132.684 54.9193C134.067 57.2356 134.946 59.8314 135.26 62.5289C135.574 65.2264 135.316 67.9617 134.504 70.5473C134.368 70.9533 134.854 71.3014 135.126 70.9648C137.601 67.7163 139.76 61.2656 133.294 54.3044C132.966 54.0028 132.457 54.4669 132.684 54.8729V54.9193ZM135.804 54.7221C137.97 56.296 139.782 58.3283 141.118 60.6819C142.454 63.0356 143.282 65.6559 143.548 68.366C143.536 68.4637 143.562 68.5622 143.619 68.6409C143.677 68.7197 143.761 68.7729 143.856 68.7892C143.95 68.8056 144.047 68.7842 144.127 68.729C144.206 68.674 144.262 68.5897 144.283 68.4937C145.323 64.4445 144.735 57.5414 136.177 53.9564C135.725 53.7707 135.431 54.3973 135.804 54.6757V54.7221ZM114.935 66.7883C117.511 65.9982 119.897 64.6599 121.936 62.8609C123.976 61.0619 125.623 58.8422 126.771 56.3464C126.975 55.9287 127.619 56.0911 127.517 56.5552C125.561 65.8369 119.016 67.7743 114.946 67.5192C114.516 67.5307 114.528 66.9158 114.935 66.7883Z" fill="#CCBEA7"/>
<path d="M133.373 124.786C109.994 124.786 90.979 109.147 90.979 89.9225C90.979 78.3206 97.9656 67.4958 109.666 61.0104C113.058 59.1541 115.963 57.2862 118.552 55.6503C119.977 54.7453 121.322 53.8984 122.622 53.1094C126.59 50.6962 129.982 49.0836 133.373 49.0836C136.765 49.0836 139.727 50.4758 143.435 52.7266C144.565 53.3879 145.696 54.1072 146.905 54.8961C149.72 56.6829 152.897 58.7016 157.08 61.0104C168.781 67.4958 175.767 78.3089 175.767 89.9225C175.767 109.147 156.752 124.786 133.373 124.786ZM133.373 51.984C130.637 51.984 127.721 53.4343 124.046 55.6155C122.769 56.3812 121.446 57.2281 120.044 58.1099C117.41 59.7806 114.392 61.6717 111 63.5629C100.238 69.5378 93.8053 79.3879 93.8053 89.9225C93.8053 107.546 111.554 121.886 133.373 121.886C155.192 121.886 172.941 107.546 172.941 89.9225C172.941 79.3879 166.508 69.5378 155.735 63.586C151.461 61.2656 148.126 59.0845 145.424 57.3674C144.192 56.59 143.062 55.8707 142.033 55.2326C138.607 53.1442 136.109 51.984 133.373 51.984Z" fill="black"/>
<path d="M141.343 98.3919C140.835 100.527 139.679 102.44 138.042 103.856C136.813 105.079 135.222 105.847 133.52 106.038C131.767 105.877 130.12 105.107 128.851 103.856C127.231 102.434 126.091 100.521 125.595 98.3919C125.579 98.2657 125.591 98.137 125.63 98.0161C125.67 97.8951 125.736 97.7852 125.823 97.6945C125.91 97.6038 126.017 97.5347 126.134 97.4928C126.251 97.4509 126.376 97.437 126.5 97.4522H140.45C140.573 97.4387 140.696 97.4542 140.812 97.497C140.928 97.5398 141.033 97.6091 141.119 97.6996C141.205 97.7901 141.27 97.8993 141.309 98.0194C141.347 98.1392 141.359 98.2665 141.343 98.3919Z" fill="#B71422"/>
<path d="M128.851 103.949C130.118 105.201 131.759 105.978 133.509 106.154C135.255 105.975 136.892 105.199 138.155 103.949C138.559 103.563 138.937 103.148 139.286 102.708C138.589 101.897 137.738 101.241 136.786 100.78C135.833 100.319 134.799 100.063 133.746 100.028C132.62 100.055 131.517 100.363 130.532 100.925C129.548 101.487 128.711 102.286 128.094 103.253C128.354 103.497 128.58 103.729 128.851 103.949Z" fill="#FF6164"/>
<path d="M129.032 103.033C129.592 102.289 130.31 101.686 131.13 101.268C131.951 100.85 132.853 100.628 133.769 100.62C135.462 100.671 137.075 101.37 138.291 102.58C138.551 102.29 138.8 101.988 139.037 101.687C137.599 100.281 135.698 99.4819 133.712 99.4477C132.651 99.4572 131.605 99.7074 130.649 100.181C129.693 100.654 128.852 101.339 128.184 102.186C128.451 102.484 128.735 102.767 129.032 103.033Z" fill="black"/>
<path d="M133.475 106.734C131.591 106.564 129.818 105.747 128.444 104.413C126.694 102.894 125.462 100.842 124.928 98.5543C124.89 98.3508 124.897 98.141 124.947 97.9401C124.998 97.7395 125.092 97.5528 125.222 97.3942C125.377 97.2022 125.573 97.049 125.794 96.9466C126.016 96.844 126.257 96.7948 126.5 96.8025H140.45C140.693 96.7972 140.933 96.8477 141.154 96.9501C141.375 97.0523 141.571 97.2041 141.728 97.3942C141.857 97.5535 141.949 97.7404 141.998 97.9412C142.047 98.1421 142.051 98.3517 142.01 98.5543C141.476 100.842 140.244 102.894 138.494 104.413C137.123 105.744 135.355 106.562 133.475 106.734ZM126.5 98.1483C126.319 98.1483 126.274 98.2295 126.262 98.2526C126.74 100.236 127.821 102.012 129.349 103.323C130.465 104.452 131.918 105.167 133.475 105.353C135.028 105.169 136.479 104.463 137.601 103.346C139.124 102.033 140.201 100.258 140.676 98.276C140.652 98.2387 140.617 98.2094 140.577 98.1911C140.538 98.1725 140.494 98.1659 140.45 98.1714L126.5 98.1483Z" fill="black"/>
<path d="M150.58 99.1113C154.232 99.1113 157.193 97.3244 157.193 95.1202C157.193 92.9159 154.232 91.129 150.58 91.129C146.927 91.129 143.966 92.9159 143.966 95.1202C143.966 97.3244 146.927 99.1113 150.58 99.1113Z" fill="#FEBBD0"/>
<path d="M116.359 99.1113C120.012 99.1113 122.973 97.3244 122.973 95.1202C122.973 92.9159 120.012 91.129 116.359 91.129C112.707 91.129 109.746 92.9159 109.746 95.1202C109.746 97.3244 112.707 99.1113 116.359 99.1113Z" fill="#FEBBD0"/>
<path fill-rule="evenodd" clip-rule="evenodd" d="M119.468 93.5191C120.7 93.5215 121.906 93.1485 122.932 92.4474C123.958 91.7463 124.758 90.7487 125.231 89.5809C125.704 88.413 125.829 87.1272 125.59 85.8863C125.351 84.6456 124.759 83.5055 123.888 82.6102C123.017 81.715 121.907 81.105 120.699 80.8574C119.49 80.6098 118.237 80.7358 117.098 81.2191C115.959 81.7027 114.986 82.5221 114.301 83.5737C113.616 84.625 113.25 85.8616 113.25 87.1263C113.25 88.8199 113.905 90.4442 115.071 91.6425C116.236 92.8411 117.818 93.516 119.468 93.5191ZM147.471 93.5191C148.705 93.5283 149.913 93.1611 150.944 92.4644C151.974 91.7674 152.779 90.7724 153.258 89.6051C153.736 88.4379 153.866 87.1511 153.631 85.9079C153.396 84.6648 152.806 83.5214 151.937 82.6227C151.067 81.7241 149.957 81.1106 148.748 80.8601C147.538 80.6098 146.284 80.7336 145.143 81.2161C144.002 81.6985 143.026 82.5179 142.34 83.5701C141.653 84.6224 141.287 85.86 141.287 87.1263C141.284 88.8148 141.933 90.4356 143.092 91.6337C144.251 92.8321 145.825 93.5098 147.471 93.5191Z" fill="black"/>
<path fill-rule="evenodd" clip-rule="evenodd" d="M117.546 87.5324C118.009 87.5348 118.463 87.3958 118.849 87.1334C119.236 86.8708 119.537 86.4967 119.716 86.058C119.895 85.6195 119.943 85.1362 119.854 84.6694C119.765 84.2029 119.543 83.7739 119.216 83.4369C118.889 83.0999 118.472 82.8699 118.018 82.7763C117.564 82.6828 117.093 82.7295 116.664 82.911C116.236 83.0924 115.87 83.4002 115.612 83.7955C115.355 84.1905 115.217 84.6553 115.217 85.1309C115.217 85.7658 115.462 86.3749 115.899 86.8249C116.335 87.2751 116.927 87.5293 117.546 87.5324ZM145.549 87.5324C146.012 87.5348 146.466 87.3958 146.852 87.1334C147.238 86.8708 147.54 86.4967 147.719 86.058C147.898 85.6195 147.946 85.1362 147.857 84.6694C147.768 84.2029 147.546 83.7739 147.219 83.4369C146.892 83.0999 146.475 82.8699 146.021 82.7763C145.567 82.6828 145.095 82.7295 144.667 82.911C144.239 83.0924 143.873 83.4002 143.615 83.7955C143.357 84.1905 143.22 84.6553 143.22 85.1309C143.22 85.7618 143.462 86.3674 143.893 86.8169C144.325 87.2663 144.911 87.5234 145.526 87.5324H145.549Z" fill="white"/>
</svg>

<svg xmlns="http://www.w3.org/2000/svg" width="268" height="268" fill="none"><path stroke="#000" stroke-linecap="round" stroke-linejoin="round" stroke-width="12" d="M134 262.004V146.899M174.657 8.901a21.47 21.47 0 0 1 20.906 0l53.868 30.183a24.7 24.7 0 0 1 9.197 9.05A24.63 24.63 0 0 1 262 60.57c0 4.37-1.164 8.662-3.372 12.437a24.7 24.7 0 0 1-9.197 9.049L93.214 169.792a21.27 21.27 0 0 1-10.517 2.781c-3.688 0-7.313-.958-10.517-2.781l-53.61-30.183a24.7 24.7 0 0 1-9.198-9.049 24.63 24.63 0 0 1 0-24.874 24.7 24.7 0 0 1 9.197-9.05z"/><path stroke="#000" stroke-linecap="round" stroke-linejoin="round" stroke-width="12" d="M236.605 146.899v49.495a26.3 26.3 0 0 1-3.831 13.691 26.4 26.4 0 0 1-10.405 9.714l-76.954 39.391a24.8 24.8 0 0 1-22.83 0l-76.954-39.391a26.4 26.4 0 0 1-10.406-9.714 26.3 26.3 0 0 1-3.83-13.691v-49.495"/><path stroke="#000" stroke-linecap="round" stroke-linejoin="round" stroke-width="12" d="M249.431 139.609a24.7 24.7 0 0 0 9.197-9.049A24.63 24.63 0 0 0 262 118.123c0-4.37-1.164-8.662-3.372-12.437a24.7 24.7 0 0 0-9.197-9.05L93.343 8.774a21.08 21.08 0 0 0-20.906 0l-53.868 30.31a24.7 24.7 0 0 0-9.197 9.05 24.63 24.63 0 0 0 0 24.874 24.7 24.7 0 0 0 9.197 9.049l156.217 87.735a21.03 21.03 0 0 0 20.905 0z"/><path fill="#000" d="M170.782 72.566a13 13 0 0 0-.566-.58c-.192-.186-.372-.395-.565-.58-.192-.186-.373-.395-.565-.58-.192-.186-.373-.395-.565-.58-.193-.186-.373-.395-.565-.58-.193-.186-.374-.395-.566-.58-.192-.186-.373-.395-.565-.58 5.607 5.655 8.82 13.349 8.942 21.417 0 19.224-19.015 34.863-42.394 34.863-13.091 0-24.803-4.907-32.592-12.599l.565.58.565.58.565.58.566.58.565.58.565.58.565.58c7.778 8.017 19.75 13.18 33.158 13.18 23.379 0 42.394-15.639 42.394-34.806 0-8.19-3.436-15.952-9.507-22.055"/><path fill="#FBF0DF" d="M172.941 89.923c0 17.646-17.715 31.951-39.568 31.951s-39.568-14.305-39.568-31.951c0-10.941 6.783-20.606 17.207-26.337s16.912-11.602 22.361-11.602 10.107 4.792 22.362 11.602c10.423 5.731 17.206 15.396 17.206 26.337"/><path fill="#F6DECE" d="M172.941 89.923a25.8 25.8 0 0 0-.904-6.706c-3.087 38.634-49.008 40.49-67.062 28.935 8.116 6.456 18.131 9.884 28.398 9.722 21.819 0 39.568-14.328 39.568-31.951"/><path fill="#FFFEFC" d="M118.145 61.463c5.054-3.11 11.769-8.945 18.371-8.957a10.3 10.3 0 0 0-3.143-.522c-2.736 0-5.652 1.45-9.327 3.631-1.277.766-2.6 1.613-4.002 2.495-2.634 1.67-5.652 3.562-9.044 5.453-10.762 5.975-17.195 15.825-17.195 26.36v1.38c6.851-24.84 19.298-26.73 24.34-29.84"/><path fill="#CCBEA7" fill-rule="evenodd" d="M130.117 54.92a19.45 19.45 0 0 1-1.643 7.946 19 19 0 0 1-4.722 6.521c-.316.29-.067.847.34.684 3.809-1.52 8.953-6.067 6.783-15.244-.091-.523-.758-.383-.758.092m2.567 0a19.2 19.2 0 0 1 2.576 7.609 19.3 19.3 0 0 1-.756 8.018c-.136.406.35.754.622.418 2.475-3.249 4.634-9.7-1.832-16.66-.328-.302-.837.162-.61.568zm3.12-.198a18.9 18.9 0 0 1 5.314 5.96 19.4 19.4 0 0 1 2.43 7.684.4.4 0 0 0 .071.275.366.366 0 0 0 .508.088.4.4 0 0 0 .156-.235c1.04-4.05.452-10.953-8.106-14.538-.452-.185-.746.441-.373.72zm-20.869 12.066a19 19 0 0 0 7.001-3.927 19.6 19.6 0 0 0 4.835-6.515c.204-.417.848-.255.746.21-1.956 9.28-8.501 11.218-12.571 10.963-.43.012-.418-.603-.011-.73" clip-rule="evenodd"/><path fill="#000" d="M133.373 124.786c-23.379 0-42.394-15.639-42.394-34.863 0-11.602 6.987-22.427 18.687-28.913 3.392-1.856 6.297-3.724 8.886-5.36a238 238 0 0 1 4.07-2.54c3.968-2.414 7.36-4.026 10.751-4.026 3.392 0 6.354 1.392 10.062 3.643 1.13.66 2.261 1.38 3.47 2.17 2.815 1.786 5.992 3.805 10.175 6.113 11.701 6.486 18.687 17.299 18.687 28.913 0 19.224-19.015 34.863-42.394 34.863m0-72.802c-2.736 0-5.652 1.45-9.327 3.631-1.277.766-2.6 1.613-4.002 2.495-2.634 1.67-5.652 3.562-9.044 5.453-10.762 5.975-17.195 15.825-17.195 26.36 0 17.623 17.749 31.963 39.568 31.963s39.568-14.34 39.568-31.963c0-10.535-6.433-20.385-17.206-26.337-4.274-2.32-7.609-4.501-10.311-6.219-1.232-.777-2.362-1.496-3.391-2.134-3.426-2.089-5.924-3.249-8.66-3.249"/><path fill="#B71422" d="M141.343 98.392a10.4 10.4 0 0 1-3.301 5.464 7.6 7.6 0 0 1-4.522 2.182 7.65 7.65 0 0 1-4.669-2.182 10.4 10.4 0 0 1-3.256-5.464.85.85 0 0 1 .228-.697.81.81 0 0 1 .677-.243h13.95a.8.8 0 0 1 .669.248.84.84 0 0 1 .224.692"/><path fill="#FF6164" d="M128.851 103.949a7.73 7.73 0 0 0 4.658 2.205 7.73 7.73 0 0 0 4.646-2.205q.607-.58 1.131-1.241a7.8 7.8 0 0 0-2.5-1.928 7.55 7.55 0 0 0-3.04-.752 6.8 6.8 0 0 0-3.214.897 7.04 7.04 0 0 0-2.438 2.328c.26.244.486.476.757.696"/><path fill="#000" d="M129.032 103.033a6.1 6.1 0 0 1 2.098-1.765 5.9 5.9 0 0 1 2.639-.648 6.7 6.7 0 0 1 4.522 1.96c.26-.29.509-.592.746-.893a7.8 7.8 0 0 0-5.325-2.24 7.04 7.04 0 0 0-3.063.734 7.2 7.2 0 0 0-2.465 2.005q.401.447.848.847"/><path fill="#000" d="M133.475 106.734a8.3 8.3 0 0 1-5.031-2.321 11.1 11.1 0 0 1-3.516-5.859 1.41 1.41 0 0 1 .294-1.16 1.6 1.6 0 0 1 1.278-.592h13.95a1.6 1.6 0 0 1 .704.148c.221.102.417.254.574.444a1.4 1.4 0 0 1 .282 1.16 11.1 11.1 0 0 1-3.516 5.859 8.3 8.3 0 0 1-5.019 2.321m-6.975-8.586c-.181 0-.226.082-.238.105a9.66 9.66 0 0 0 3.087 5.07 6.97 6.97 0 0 0 4.126 2.03 7.02 7.02 0 0 0 4.126-2.007 9.66 9.66 0 0 0 3.075-5.07.23.23 0 0 0-.226-.105z"/><path fill="#FEBBD0" d="M150.58 99.111c3.652 0 6.613-1.787 6.613-3.99 0-2.205-2.961-3.992-6.613-3.992s-6.614 1.787-6.614 3.991 2.961 3.991 6.614 3.991m-34.221 0c3.653 0 6.614-1.787 6.614-3.99 0-2.205-2.961-3.992-6.614-3.992s-6.613 1.787-6.613 3.991 2.961 3.991 6.613 3.991"/><path fill="#000" fill-rule="evenodd" d="M119.468 93.52a6.1 6.1 0 0 0 3.464-1.073 6.36 6.36 0 0 0 2.299-2.866 6.55 6.55 0 0 0 .359-3.695 6.44 6.44 0 0 0-1.702-3.276 6.2 6.2 0 0 0-3.189-1.753 6.1 6.1 0 0 0-3.601.362 6.27 6.27 0 0 0-2.797 2.355 6.5 6.5 0 0 0-1.051 3.552c0 1.694.655 3.318 1.821 4.516a6.15 6.15 0 0 0 4.397 1.877m28.003 0a6.1 6.1 0 0 0 3.473-1.056 6.36 6.36 0 0 0 2.314-2.859 6.55 6.55 0 0 0 .373-3.697 6.45 6.45 0 0 0-1.694-3.285 6.2 6.2 0 0 0-3.189-1.763 6.1 6.1 0 0 0-3.605.356 6.26 6.26 0 0 0-2.803 2.354 6.5 6.5 0 0 0-1.053 3.556 6.47 6.47 0 0 0 1.805 4.508 6.14 6.14 0 0 0 4.379 1.885" clip-rule="evenodd"/><path fill="#fff" fill-rule="evenodd" d="M117.546 87.532c.463.003.917-.136 1.303-.399a2.4 2.4 0 0 0 .867-1.075 2.46 2.46 0 0 0 .138-1.389 2.4 2.4 0 0 0-.638-1.232 2.3 2.3 0 0 0-1.198-.66 2.3 2.3 0 0 0-1.354.134c-.428.181-.794.49-1.052.885a2.45 2.45 0 0 0 .287 3.029c.436.45 1.028.704 1.647.707m28.003 0c.463.003.917-.136 1.303-.399.386-.262.688-.636.867-1.075a2.46 2.46 0 0 0 .138-1.389 2.4 2.4 0 0 0-.638-1.232 2.3 2.3 0 0 0-1.198-.66 2.3 2.3 0 0 0-1.354.134c-.428.181-.794.49-1.052.885a2.44 2.44 0 0 0-.395 1.335c0 .63.242 1.236.673 1.686s1.018.706 1.633.715z" clip-rule="evenodd"/></svg>
